X: 2198
T: MISS SCOTT OF USAN
R: Reel
B: Kerr's v.2 p.22 #198
Z: 2016 John Chambers <jc:trillian.mit.edu>
M: C
L: 1/8
K: F
A |\
F2cA c2fd | F2(cA) dGGA |\
F2cA c2fd | cfAf AFF ::\
e |\
fcfa gdbg |
fcfa gdde |\
[1 fcfa gdde | cAfc AFF :|\
[2 faga fgdf | cAfc AFF |]
